X: 1512
T: the Cameronian Reel
T: siesd camerona.c.
R: reel
O: F.O'Neill
B: O'Neill's 1850 "Music of Ireland" #1512
Z: transcribed by John B. Walsh, walsh@math.ubc.ca 8/23/96
Z: Compacted via repeats and multiple endings [JC]
M: C|
L: 1/8
K: D
(dB) !segno!|| {B}A2FA DAFA | GFEF GBdB | TBAFA DAFA | GBAG [1 FD :|[2 FDHD2 |] Addc d2(cd) | edef gfed |
| ((3cBA) (eA) fAeA | fdef gfed || fgaf bage | dfec defg | ((3agf) (ge) fdec | dABG FAd!segno!B |]
